img/email_icon.svg

<svg width="16" height="13" viewBox="0 0 16 13" fill="none" xmlns="http://www.w3.org/2000/svg">
<path d="M2.4 0.994141H13.6C14.37 0.994141 15 1.62414 15 2.39414V10.7941C15 11.5641 14.37 12.1941 13.6 12.1941H2.4C1.63 12.1941 1 11.5641 1 10.7941V2.39414C1 1.62414 1.63 0.994141 2.4 0.994141Z" stroke="white" stroke-width="1.5" stroke-linecap="round" stroke-linejoin="round"/>
<path d="M15 2.39453L8 7.29453L1 2.39453" stroke="white" stroke-width="1.5" stroke-linecap="round" stroke-linejoin="round"/>
</svg>

<svg width="16" height="13" fill="none" xmlns="http://www.w3.org/2000/svg"><path d="M2.4.994h11.2c.77 0 1.4.63 1.4 1.4v8.4c0 .77-.63 1.4-1.4 1.4H2.4c-.77 0-1.4-.63-1.4-1.4v-8.4c0-.77.63-1.4 1.4-1.4Z" stroke="#fff" stroke-width="1.5" stroke-linecap="round" stroke-linejoin="round"/><path d="m15 2.395-7 4.9-7-4.9" stroke="#fff" stroke-width="1.5" stroke-linecap="round" stroke-linejoin="round"/></svg>
